Costumes/cloud-b.svg

<svg version="1.1" width="223" height="36" viewBox="-1 -1 223 36" xmlns="http://www.w3.org/2000/svg" xmlns:xlink="http://www.w3.org/1999/xlink">
  <!-- Exported by Scratch - http://scratch.mit.edu/ -->
  <g id="ID0.8779984749853611" transform="matrix(0.949999988079071, 0, 0, 0.949999988079071, -0.5, -0.15)">
    <path id="ID0.6018807697109878" fill="#FFFFFF" stroke="#E3DEEE" d="M 513.200 535.900 C 524 535.200 966.400 535.900 971.800 535.900 C 978.700 535.900 973.200 525.800 961.800 519.800 C 943.100 510 927.700 515.800 926.700 514.400 C 925.900 513.300 931.100 491 890.400 484.100 C 861.200 479.200 838.100 481.200 799.100 494.400 C 789.200 487.800 753.400 465.200 698.600 464.600 C 636 463.800 589.100 506.500 584.400 510.500 C 577.300 510.800 565.200 512.300 549.900 516.400 C 536.100 520.100 523.400 526.300 515 531 C 510.500 533.500 510 535.900 513.200 535.900 Z " transform="matrix(0.47561928629875183, 0, 0, 0.47561928629875183, -242.3, -220.2)"/>
    <path id="ID0.37631497299298644" fill="#E3DEEE" d="M 720.800 520.400 C 745.900 519.200 770.300 503.600 799.100 494.400 C 789.200 487.800 753.400 465.200 698.600 464.600 C 636 463.800 589.100 506.500 584.400 510.500 C 628.200 509.300 688.800 521.900 720.800 520.400 Z " transform="matrix(0.47561928629875183, 0, 0, 0.47561928629875183, -242.3, -220.2)"/>
  </g>
</svg>

<?xml version="1.0" encoding="UTF-8" standalone="no"?>
<svg
   version="1.1"
   width="209.96138"
   height="32.672928"
   viewBox="-1 -1 209.96138 32.672928"
   id="svg5"
   sodipodi:docname="cloud-b.svg"
   xmlns:inkscape="http://www.inkscape.org/namespaces/inkscape"
   xmlns:sodipodi="http://sodipodi.sourceforge.net/DTD/sodipodi-0.dtd"
   xmlns="http://www.w3.org/2000/svg"
   xmlns:svg="http://www.w3.org/2000/svg">
  <defs
     id="defs9" />
  <sodipodi:namedview
     id="namedview7"
     pagecolor="#ffffff"
     bordercolor="#000000"
     borderopacity="0.25"
     inkscape:showpageshadow="2"
     inkscape:pageopacity="0.0"
     inkscape:pagecheckerboard="0"
     inkscape:deskcolor="#d1d1d1" />
  <!-- Exported by Scratch - http://scratch.mit.edu/ -->
  <g
     id="ID0.8779984749853611"
     transform="matrix(0.94999999,0,0,0.94999999,-1.5506271,-1.5031486)">
    <path
       id="ID0.6018807697109878"
       fill="#ffffff"
       stroke="#e3deee"
       d="m 513.2,535.9 c 10.8,-0.7 453.2,0 458.6,0 6.9,0 1.4,-10.1 -10,-16.1 -18.7,-9.8 -34.1,-4 -35.1,-5.4 -0.8,-1.1 4.4,-23.4 -36.3,-30.3 -29.2,-4.9 -52.3,-2.9 -91.3,10.3 -9.9,-6.6 -45.7,-29.2 -100.5,-29.8 -62.6,-0.8 -109.5,41.9 -114.2,45.9 -7.1,0.3 -19.2,1.8 -34.5,5.9 -13.8,3.7 -26.5,9.9 -34.9,14.6 -4.5,2.5 -5,4.9 -1.8,4.9 z"
       transform="matrix(0.47561929,0,0,0.47561929,-242.3,-220.2)" />
    <path
       id="ID0.37631497299298644"
       fill="#e3deee"
       d="m 720.8,520.4 c 25.1,-1.2 49.5,-16.8 78.3,-26 -9.9,-6.6 -45.7,-29.2 -100.5,-29.8 -62.6,-0.8 -109.5,41.9 -114.2,45.9 43.8,-1.2 104.4,11.4 136.4,9.9 z"
       transform="matrix(0.47561929,0,0,0.47561929,-242.3,-220.2)" />
  </g>
</svg>
